images/29861.svg

<?xml version="1.0" encoding="UTF-8"?>
<svg xmlns="http://www.w3.org/2000/svg" xmlns:xlink="http://www.w3.org/1999/xlink" width="300pt" height="300pt" viewBox="0 0 300 300" version="1.1">
<defs>
<g>
<symbol overflow="visible" id="glyph0-0">
<path style="stroke:none;" d="M 0.640625 2.296875 L 0.640625 -9.171875 L 7.140625 -9.171875 L 7.140625 2.296875 Z M 1.375 1.578125 L 6.421875 1.578125 L 6.421875 -8.4375 L 1.375 -8.4375 Z M 1.375 1.578125 "/>
</symbol>
<symbol overflow="visible" id="glyph0-1">
<path style="stroke:none;" d="M 8.375 -8.75 L 8.375 -7.390625 C 7.9375 -7.796875 7.472656 -8.097656 6.984375 -8.296875 C 6.503906 -8.492188 5.988281 -8.59375 5.4375 -8.59375 C 4.351562 -8.59375 3.519531 -8.257812 2.9375 -7.59375 C 2.363281 -6.9375 2.078125 -5.984375 2.078125 -4.734375 C 2.078125 -3.484375 2.363281 -2.523438 2.9375 -1.859375 C 3.519531 -1.203125 4.351562 -0.875 5.4375 -0.875 C 5.988281 -0.875 6.503906 -0.972656 6.984375 -1.171875 C 7.472656 -1.367188 7.9375 -1.664062 8.375 -2.0625 L 8.375 -0.734375 C 7.925781 -0.421875 7.453125 -0.1875 6.953125 -0.03125 C 6.453125 0.113281 5.921875 0.1875 5.359375 0.1875 C 3.921875 0.1875 2.789062 -0.25 1.96875 -1.125 C 1.144531 -2.007812 0.734375 -3.210938 0.734375 -4.734375 C 0.734375 -6.253906 1.144531 -7.453125 1.96875 -8.328125 C 2.789062 -9.210938 3.921875 -9.65625 5.359375 -9.65625 C 5.921875 -9.65625 6.453125 -9.578125 6.953125 -9.421875 C 7.460938 -9.273438 7.9375 -9.050781 8.375 -8.75 Z M 8.375 -8.75 "/>
</symbol>
<symbol overflow="visible" id="glyph0-2">
<path style="stroke:none;" d="M 1.21875 -9.875 L 2.390625 -9.875 L 2.390625 0 L 1.21875 0 Z M 1.21875 -9.875 "/>
</symbol>
<symbol overflow="visible" id="glyph0-3">
<path style="stroke:none;" d="M 1.28125 -9.484375 L 3 -9.484375 L 7.203125 -1.546875 L 7.203125 -9.484375 L 8.453125 -9.484375 L 8.453125 0 L 6.71875 0 L 2.515625 -7.921875 L 2.515625 0 L 1.28125 0 Z M 1.28125 -9.484375 "/>
</symbol>
<symbol overflow="visible" id="glyph0-4">
<path style="stroke:none;" d="M 1.28125 -9.484375 L 2.5625 -9.484375 L 2.5625 -5.59375 L 7.21875 -5.59375 L 7.21875 -9.484375 L 8.5 -9.484375 L 8.5 0 L 7.21875 0 L 7.21875 -4.515625 L 2.5625 -4.515625 L 2.5625 0 L 1.28125 0 Z M 1.28125 -9.484375 "/>
</symbol>
<symbol overflow="visible" id="glyph0-5">
<path style="stroke:none;" d="M 5.125 -8.609375 C 4.1875 -8.609375 3.441406 -8.257812 2.890625 -7.5625 C 2.347656 -6.875 2.078125 -5.929688 2.078125 -4.734375 C 2.078125 -3.535156 2.347656 -2.585938 2.890625 -1.890625 C 3.441406 -1.203125 4.1875 -0.859375 5.125 -0.859375 C 6.050781 -0.859375 6.785156 -1.203125 7.328125 -1.890625 C 7.878906 -2.585938 8.15625 -3.535156 8.15625 -4.734375 C 8.15625 -5.929688 7.878906 -6.875 7.328125 -7.5625 C 6.785156 -8.257812 6.050781 -8.609375 5.125 -8.609375 Z M 5.125 -9.65625 C 6.445312 -9.65625 7.503906 -9.207031 8.296875 -8.3125 C 9.097656 -7.414062 9.5 -6.222656 9.5 -4.734375 C 9.5 -3.234375 9.097656 -2.035156 8.296875 -1.140625 C 7.503906 -0.253906 6.445312 0.1875 5.125 0.1875 C 3.789062 0.1875 2.722656 -0.253906 1.921875 -1.140625 C 1.128906 -2.035156 0.734375 -3.234375 0.734375 -4.734375 C 0.734375 -6.222656 1.128906 -7.414062 1.921875 -8.3125 C 2.722656 -9.207031 3.789062 -9.65625 5.125 -9.65625 Z M 5.125 -9.65625 "/>
</symbol>
</g>
</defs>
<g id="surface21629">
<rect x="0" y="0" width="300" height="300" style="fill:rgb(100%,100%,100%);fill-opacity:1;stroke:none;"/>
<path style="fill:none;stroke-width:1.2;stroke-linecap:butt;stroke-linejoin:miter;stroke:rgb(0%,80%,0%);stroke-opacity:1;stroke-miterlimit:10;" d="M 135.210938 199.5 L 118.550781 197.011719 "/>
<path style="fill:none;stroke-width:1.2;stroke-linecap:butt;stroke-linejoin:miter;stroke:rgb(0%,0%,0%);stroke-opacity:1;stroke-miterlimit:10;" d="M 118.550781 197.011719 L 101.890625 194.527344 "/>
<path style=" stroke:none;fill-rule:nonzero;fill:rgb(100%,100%,100%);fill-opacity:1;" d="M 128.210938 191.5 L 142.210938 191.5 L 142.210938 207.5 L 128.210938 207.5 Z M 128.210938 191.5 "/>
<g style="fill:rgb(0%,80%,0%);fill-opacity:1;">
  <use xlink:href="#glyph0-1" x="128.210938" y="203.875977"/>
  <use xlink:href="#glyph0-2" x="137.517578" y="203.875977"/>
</g>
<path style="fill:none;stroke-width:1.2;stroke-linecap:butt;stroke-linejoin:miter;stroke:rgb(0%,0%,0%);stroke-opacity:1;stroke-miterlimit:10;" d="M 101.890625 194.527344 L 80.925781 220.898438 "/>
<path style="fill:none;stroke-width:1.2;stroke-linecap:butt;stroke-linejoin:miter;stroke:rgb(0%,0%,0%);stroke-opacity:1;stroke-miterlimit:10;" d="M 93.589844 192.230469 L 76.816406 213.328125 "/>
<path style="fill:none;stroke-width:1.2;stroke-linecap:butt;stroke-linejoin:miter;stroke:rgb(0%,0%,0%);stroke-opacity:1;stroke-miterlimit:10;" d="M 89.535156 163.1875 L 101.890625 194.527344 "/>
<path style="fill:none;stroke-width:1.2;stroke-linecap:butt;stroke-linejoin:miter;stroke:rgb(0%,0%,0%);stroke-opacity:1;stroke-miterlimit:10;" d="M 80.925781 220.898438 L 47.605469 215.929688 "/>
<path style="fill:none;stroke-width:1.2;stroke-linecap:butt;stroke-linejoin:miter;stroke:rgb(0%,0%,0%);stroke-opacity:1;stroke-miterlimit:10;" d="M 47.605469 215.929688 L 35.25 184.585938 "/>
<path style="fill:none;stroke-width:1.2;stroke-linecap:butt;stroke-linejoin:miter;stroke:rgb(0%,0%,0%);stroke-opacity:1;stroke-miterlimit:10;" d="M 53.746094 209.886719 L 43.859375 184.8125 "/>
<path style="fill:none;stroke-width:1.2;stroke-linecap:butt;stroke-linejoin:miter;stroke:rgb(0%,0%,0%);stroke-opacity:1;stroke-miterlimit:10;" d="M 35.25 184.585938 L 56.214844 158.214844 "/>
<path style="fill:none;stroke-width:1.2;stroke-linecap:butt;stroke-linejoin:miter;stroke:rgb(0%,0%,0%);stroke-opacity:1;stroke-miterlimit:10;" d="M 56.214844 158.214844 L 89.535156 163.1875 "/>
<path style="fill:none;stroke-width:1.2;stroke-linecap:butt;stroke-linejoin:miter;stroke:rgb(0%,0%,0%);stroke-opacity:1;stroke-miterlimit:10;" d="M 58.378906 166.550781 L 85.035156 170.527344 "/>
<path style="fill:none;stroke-width:1.2;stroke-linecap:butt;stroke-linejoin:miter;stroke:rgb(0%,0%,0%);stroke-opacity:1;stroke-miterlimit:10;" d="M 89.535156 163.1875 L 100.019531 150 "/>
<path style="fill:none;stroke-width:1.2;stroke-linecap:butt;stroke-linejoin:miter;stroke:rgb(0%,0%,100%);stroke-opacity:1;stroke-miterlimit:10;" d="M 100.019531 150 L 110.5 136.8125 "/>
<path style="fill:none;stroke-width:1.2;stroke-linecap:butt;stroke-linejoin:miter;stroke:rgb(0%,0%,100%);stroke-opacity:1;stroke-miterlimit:10;" d="M 110.5 136.8125 L 143.820312 141.785156 "/>
<path style="fill:none;stroke-width:1.2;stroke-linecap:butt;stroke-linejoin:miter;stroke:rgb(0%,0%,0%);stroke-opacity:1;stroke-miterlimit:10;" d="M 98.144531 105.472656 L 104.324219 121.144531 "/>
<path style="fill:none;stroke-width:1.2;stroke-linecap:butt;stroke-linejoin:miter;stroke:rgb(0%,0%,100%);stroke-opacity:1;stroke-miterlimit:10;" d="M 104.324219 121.144531 L 110.5 136.8125 "/>
<path style=" stroke:none;fill-rule:nonzero;fill:rgb(100%,100%,100%);fill-opacity:1;" d="M 105.5 128.8125 L 115.5 128.8125 L 115.5 144.8125 L 105.5 144.8125 Z M 105.5 128.8125 "/>
<g style="fill:rgb(0%,0%,100%);fill-opacity:1;">
  <use xlink:href="#glyph0-3" x="105.5" y="141.188477"/>
</g>
<path style="fill:none;stroke-width:1.2;stroke-linecap:butt;stroke-linejoin:miter;stroke:rgb(0%,0%,100%);stroke-opacity:1;stroke-miterlimit:10;" d="M 143.820312 141.785156 L 154.304688 128.597656 "/>
<path style="fill:none;stroke-width:1.2;stroke-linecap:butt;stroke-linejoin:miter;stroke:rgb(0%,0%,0%);stroke-opacity:1;stroke-miterlimit:10;" d="M 154.304688 128.597656 L 164.789062 115.414062 "/>
<path style="fill:none;stroke-width:1.2;stroke-linecap:butt;stroke-linejoin:miter;stroke:rgb(0%,0%,100%);stroke-opacity:1;stroke-miterlimit:10;" d="M 139.714844 134.214844 L 148.101562 123.667969 "/>
<path style="fill:none;stroke-width:1.2;stroke-linecap:butt;stroke-linejoin:miter;stroke:rgb(0%,0%,0%);stroke-opacity:1;stroke-miterlimit:10;" d="M 148.101562 123.667969 L 156.484375 113.117188 "/>
<path style=" stroke:none;fill-rule:nonzero;fill:rgb(100%,100%,100%);fill-opacity:1;" d="M 138.820312 133.785156 L 148.820312 133.785156 L 148.820312 149.785156 L 138.820312 149.785156 Z M 138.820312 133.785156 "/>
<g style="fill:rgb(0%,0%,100%);fill-opacity:1;">
  <use xlink:href="#glyph0-3" x="138.820312" y="146.161133"/>
</g>
<path style="fill:none;stroke-width:1.2;stroke-linecap:butt;stroke-linejoin:miter;stroke:rgb(0%,0%,0%);stroke-opacity:1;stroke-miterlimit:10;" d="M 164.789062 115.414062 L 181.449219 117.898438 "/>
<path style="fill:none;stroke-width:1.2;stroke-linecap:butt;stroke-linejoin:miter;stroke:rgb(0%,0%,100%);stroke-opacity:1;stroke-miterlimit:10;" d="M 181.449219 117.898438 L 198.109375 120.386719 "/>
<path style="fill:none;stroke-width:1.2;stroke-linecap:butt;stroke-linejoin:miter;stroke:rgb(0%,0%,0%);stroke-opacity:1;stroke-miterlimit:10;" d="M 164.789062 115.414062 L 152.433594 84.070312 "/>
<path style="fill:none;stroke-width:1.2;stroke-linecap:butt;stroke-linejoin:miter;stroke:rgb(0%,0%,100%);stroke-opacity:1;stroke-miterlimit:10;" d="M 198.109375 120.386719 L 204.285156 136.054688 "/>
<path style="fill:none;stroke-width:1.2;stroke-linecap:butt;stroke-linejoin:miter;stroke:rgb(0%,0%,0%);stroke-opacity:1;stroke-miterlimit:10;" d="M 204.285156 136.054688 L 210.464844 151.726562 "/>
<path style=" stroke:none;fill-rule:nonzero;fill:rgb(100%,100%,100%);fill-opacity:1;" d="M 188.109375 112.386719 L 208.109375 112.386719 L 208.109375 128.386719 L 188.109375 128.386719 Z M 188.109375 112.386719 "/>
<g style="fill:rgb(0%,0%,100%);fill-opacity:1;">
  <use xlink:href="#glyph0-3" x="188.109375" y="124.762695"/>
  <use xlink:href="#glyph0-4" x="198.079102" y="124.762695"/>
</g>
<path style="fill:none;stroke-width:1.2;stroke-linecap:butt;stroke-linejoin:miter;stroke:rgb(0%,0%,0%);stroke-opacity:1;stroke-miterlimit:10;" d="M 210.464844 151.726562 L 189.5 178.097656 "/>
<path style="fill:none;stroke-width:1.2;stroke-linecap:butt;stroke-linejoin:miter;stroke:rgb(0%,0%,0%);stroke-opacity:1;stroke-miterlimit:10;" d="M 214.574219 159.296875 L 197.800781 180.394531 "/>
<path style="fill:none;stroke-width:1.2;stroke-linecap:butt;stroke-linejoin:miter;stroke:rgb(0%,0%,0%);stroke-opacity:1;stroke-miterlimit:10;" d="M 243.785156 156.699219 L 210.464844 151.726562 "/>
<path style="fill:none;stroke-width:1.2;stroke-linecap:butt;stroke-linejoin:miter;stroke:rgb(0%,0%,0%);stroke-opacity:1;stroke-miterlimit:10;" d="M 189.5 178.097656 L 201.855469 209.441406 "/>
<path style="fill:none;stroke-width:1.2;stroke-linecap:butt;stroke-linejoin:miter;stroke:rgb(0%,0%,0%);stroke-opacity:1;stroke-miterlimit:10;" d="M 201.855469 209.441406 L 235.175781 214.410156 "/>
<path style="fill:none;stroke-width:1.2;stroke-linecap:butt;stroke-linejoin:miter;stroke:rgb(0%,0%,0%);stroke-opacity:1;stroke-miterlimit:10;" d="M 206.355469 202.097656 L 233.011719 206.074219 "/>
<path style="fill:none;stroke-width:1.2;stroke-linecap:butt;stroke-linejoin:miter;stroke:rgb(0%,0%,0%);stroke-opacity:1;stroke-miterlimit:10;" d="M 235.175781 214.410156 L 256.140625 188.039062 "/>
<path style="fill:none;stroke-width:1.2;stroke-linecap:butt;stroke-linejoin:miter;stroke:rgb(0%,0%,0%);stroke-opacity:1;stroke-miterlimit:10;" d="M 256.140625 188.039062 L 243.785156 156.699219 "/>
<path style="fill:none;stroke-width:1.2;stroke-linecap:butt;stroke-linejoin:miter;stroke:rgb(0%,0%,0%);stroke-opacity:1;stroke-miterlimit:10;" d="M 247.53125 187.8125 L 237.644531 162.738281 "/>
<path style="fill:none;stroke-width:1.2;stroke-linecap:butt;stroke-linejoin:miter;stroke:rgb(0%,0%,0%);stroke-opacity:1;stroke-miterlimit:10;" d="M 243.785156 156.699219 L 264.75 130.328125 "/>
<path style="fill:none;stroke-width:1.2;stroke-linecap:butt;stroke-linejoin:miter;stroke:rgb(0%,0%,0%);stroke-opacity:1;stroke-miterlimit:10;" d="M 152.433594 84.070312 L 119.109375 79.101562 "/>
<path style="fill:none;stroke-width:1.2;stroke-linecap:butt;stroke-linejoin:miter;stroke:rgb(0%,0%,0%);stroke-opacity:1;stroke-miterlimit:10;" d="M 147.929688 91.414062 L 121.273438 87.4375 "/>
<path style="fill:none;stroke-width:1.2;stroke-linecap:butt;stroke-linejoin:miter;stroke:rgb(0%,0%,0%);stroke-opacity:1;stroke-miterlimit:10;" d="M 119.109375 79.101562 L 98.144531 105.472656 "/>
<path style="fill:none;stroke-width:1.2;stroke-linecap:butt;stroke-linejoin:miter;stroke:rgb(0%,0%,0%);stroke-opacity:1;stroke-miterlimit:10;" d="M 98.730469 101.550781 L 82.070312 99.066406 "/>
<path style="fill:none;stroke-width:1.2;stroke-linecap:butt;stroke-linejoin:miter;stroke:rgb(100%,0%,0%);stroke-opacity:1;stroke-miterlimit:10;" d="M 82.070312 99.066406 L 65.410156 96.582031 "/>
<path style="fill:none;stroke-width:1.2;stroke-linecap:butt;stroke-linejoin:miter;stroke:rgb(0%,0%,0%);stroke-opacity:1;stroke-miterlimit:10;" d="M 97.5625 109.390625 L 80.902344 106.90625 "/>
<path style="fill:none;stroke-width:1.2;stroke-linecap:butt;stroke-linejoin:miter;stroke:rgb(100%,0%,0%);stroke-opacity:1;stroke-miterlimit:10;" d="M 80.902344 106.90625 L 64.242188 104.421875 "/>
<path style=" stroke:none;fill-rule:nonzero;fill:rgb(100%,100%,100%);fill-opacity:1;" d="M 53.824219 92.5 L 64.824219 92.5 L 64.824219 108.5 L 53.824219 108.5 Z M 53.824219 92.5 "/>
<g style="fill:rgb(100%,0%,0%);fill-opacity:1;">
  <use xlink:href="#glyph0-5" x="53.824219" y="104.875977"/>
</g>
</g>
</svg>

<svg xmlns="http://www.w3.org/2000/svg" xmlns:xlink="http://www.w3.org/1999/xlink" width="300pt" height="300pt" viewBox="0 0 300 300"><defs><symbol overflow="visible"><path d="M.64 2.297v-11.47h6.5v11.47zm.735-.72h5.047V-8.436H1.375zm0 0"/></symbol><symbol overflow="visible" id="a"><path d="M8.375-8.75v1.36c-.438-.407-.902-.708-1.39-.907-.48-.195-.997-.297-1.548-.297-1.085 0-1.917.336-2.5 1-.574.657-.86 1.61-.86 2.86 0 1.25.286 2.21.86 2.875.583.657 1.415.985 2.5.985.55 0 1.067-.098 1.547-.297.49-.195.954-.492 1.39-.89v1.328c-.448.312-.92.546-1.42.703-.5.143-1.032.217-1.595.217-1.438 0-2.57-.437-3.39-1.312C1.144-2.008.733-3.21.733-4.735c0-1.52.41-2.718 1.235-3.593.82-.883 1.952-1.328 3.39-1.328.562 0 1.093.078 1.593.234.508.15.984.37 1.422.672zm0 0"/></symbol><symbol overflow="visible" id="b"><path d="M1.22-9.875h1.17V0H1.22zm0 0"/></symbol><symbol overflow="visible" id="c"><path d="M1.28-9.484H3l4.203 7.937v-7.937h1.25V0H6.72L2.515-7.922V0H1.28zm0 0"/></symbol><symbol overflow="visible" id="d"><path d="M1.28-9.484h1.282v3.89H7.22v-3.89H8.5V0H7.22v-4.516H2.562V0H1.28zm0 0"/></symbol><symbol overflow="visible" id="e"><path d="M5.125-8.61c-.938 0-1.684.352-2.234 1.047-.542.688-.812 1.633-.812 2.83 0 1.198.27 2.147.813 2.842.55.687 1.297 1.03 2.235 1.03.926 0 1.66-.343 2.203-1.03.55-.696.828-1.645.828-2.844 0-1.196-.277-2.14-.828-2.829-.543-.695-1.277-1.046-2.203-1.046zm0-1.046c1.32 0 2.38.45 3.172 1.344.8.898 1.203 2.09 1.203 3.578 0 1.5-.402 2.7-1.203 3.593C7.504-.255 6.445.186 5.125.186c-1.336 0-2.402-.44-3.203-1.328C1.13-2.036.734-3.235.734-4.735c0-1.49.395-2.68 1.188-3.579.8-.894 1.867-1.343 3.203-1.343zm0 0"/></symbol></defs><g><path fill="#fff" d="M0 0h300v300H0z"/><path d="M135.21 199.5l-16.66-2.488" stroke-width="1.2" stroke="#0c0" stroke-miterlimit="10" fill="none"/><path d="M118.55 197.012l-16.66-2.485" stroke-width="1.2" stroke="#000" stroke-miterlimit="10" fill="none"/><path d="M128.21 191.5h14v16h-14zm0 0" fill="#fff"/><g fill="#0c0"><use xlink:href="#a" x="128.211" y="203.876"/><use xlink:href="#b" x="137.518" y="203.876"/></g><path d="M101.89 194.527l-20.964 26.37M93.59 192.23l-16.774 21.098M89.535 163.188l12.356 31.34M80.926 220.898l-33.32-4.968M47.605 215.93L35.25 184.586M53.746 209.887l-9.887-25.075M35.25 184.586l20.965-26.37M56.215 158.215l33.32 4.972M58.38 166.55l26.655 3.977M89.535 163.188L100.02 150" stroke-width="1.2" stroke="#000" stroke-miterlimit="10" fill="none"/><path d="M100.02 150l10.48-13.188M110.5 136.813l33.32 4.972" stroke-width="1.2" stroke="#00f" stroke-miterlimit="10" fill="none"/><path d="M98.145 105.473l6.18 15.672" stroke-width="1.2" stroke="#000" stroke-miterlimit="10" fill="none"/><path d="M104.324 121.145l6.176 15.668" stroke-width="1.2" stroke="#00f" stroke-miterlimit="10" fill="none"/><path d="M105.5 128.813h10v16h-10zm0 0" fill="#fff"/><use xlink:href="#c" x="105.5" y="141.188" fill="#00f"/><path d="M143.82 141.785l10.485-13.187" stroke-width="1.2" stroke="#00f" stroke-miterlimit="10" fill="none"/><path d="M154.305 128.598l10.484-13.184" stroke-width="1.2" stroke="#000" stroke-miterlimit="10" fill="none"/><path d="M139.715 134.215l8.387-10.547" stroke-width="1.2" stroke="#00f" stroke-miterlimit="10" fill="none"/><path d="M148.102 123.668l8.382-10.55" stroke-width="1.2" stroke="#000" stroke-miterlimit="10" fill="none"/><path d="M138.82 133.785h10v16h-10zm0 0" fill="#fff"/><use xlink:href="#c" x="138.82" y="146.161" fill="#00f"/><path d="M164.79 115.414l16.66 2.484" stroke-width="1.2" stroke="#000" stroke-miterlimit="10" fill="none"/><path d="M181.45 117.898l16.66 2.49" stroke-width="1.2" stroke="#00f" stroke-miterlimit="10" fill="none"/><path d="M164.79 115.414L152.433 84.07" stroke-width="1.2" stroke="#000" stroke-miterlimit="10" fill="none"/><path d="M198.11 120.387l6.175 15.668" stroke-width="1.2" stroke="#00f" stroke-miterlimit="10" fill="none"/><path d="M204.285 136.055l6.18 15.672" stroke-width="1.2" stroke="#000" stroke-miterlimit="10" fill="none"/><path d="M188.11 112.387h20v16h-20zm0 0" fill="#fff"/><g fill="#00f"><use xlink:href="#c" x="188.109" y="124.763"/><use xlink:href="#d" x="198.079" y="124.763"/></g><path d="M210.465 151.727l-20.965 26.37M214.574 159.297L197.8 180.395M243.785 156.7l-33.32-4.973M189.5 178.098l12.355 31.343M201.855 209.44l33.32 4.97M206.355 202.098l26.657 3.976M235.176 214.41l20.965-26.37M256.14 188.04l-12.355-31.34M247.53 187.813l-9.885-25.075M243.785 156.7l20.965-26.372M152.434 84.07l-33.325-4.968M147.93 91.414l-26.657-3.977M119.11 79.102l-20.965 26.37M98.73 101.55l-16.66-2.484" stroke-width="1.2" stroke="#000" stroke-miterlimit="10" fill="none"/><path d="M82.07 99.066l-16.66-2.484" stroke-width="1.2" stroke="#f00" stroke-miterlimit="10" fill="none"/><path d="M97.563 109.39l-16.66-2.484" stroke-width="1.2" stroke="#000" stroke-miterlimit="10" fill="none"/><path d="M80.902 106.906l-16.66-2.484" stroke-width="1.2" stroke="#f00" stroke-miterlimit="10" fill="none"/><path d="M53.824 92.5h11v16h-11zm0 0" fill="#fff"/><use xlink:href="#e" x="53.824" y="104.876" fill="#f00"/></g></svg>
